public/icon/icon-footer-logo.svg

<svg width="200" height="50" viewBox="0 0 200 50" fill="none" xmlns="http://www.w3.org/2000/svg">
<path fill-rule="evenodd" clip-rule="evenodd" d="M91.0069 17.6482V15.3462H95.2452C96.3755 15.3462 96.7885 15.7927 96.7885 16.5022C96.7885 17.3096 96.3755 17.647 95.2452 17.647H91.0069V17.6482ZM91.0069 10.1047H94.6987C95.7717 10.1047 96.0724 10.4483 96.0724 11.1553C96.0724 11.8387 95.7717 12.2021 94.6987 12.2021H91.0069V10.1047ZM103.871 17.0975C103.871 15.5509 102.685 14.1382 100.781 13.647C101.805 13.3035 103.014 11.861 103.014 10.5562C103.014 7.88214 101.42 6.59967 97.2289 6.59967H84.0873V21.3182H96.0711C101.226 21.317 103.871 20.6076 103.871 17.0975ZM71.2215 34.4542L68.2957 26.8003H59.0967V41.5251H66.0125V35.9934L65.1266 30.2099L69.2639 41.5251H73.1765L77.3063 30.2099L76.4254 35.9934V41.5251H83.3462V26.8003H74.1435L71.2215 34.4542ZM181.483 26.8003V31.4663H187.273V41.5251H194.216V31.4663H200V26.8003H181.483ZM96.1023 38.2247C94.4754 38.2247 93.5658 37.6777 93.5658 36.7537C93.5658 35.8384 94.3681 35.5804 96.2108 35.4204C98.0599 35.2666 99.6856 35.3174 101.088 34.6613C101.112 34.7928 101.112 34.9007 101.112 35.0322C101.112 36.9137 99.2152 38.2247 96.1023 38.2247ZM108.056 33.5612C108.056 30.9652 107.696 29.3181 105.938 28.0059C104.502 26.9616 101.752 26.4096 97.6444 26.4096C90.6725 26.4096 87.3125 27.614 87.0094 31.3857H94.146C94.3394 30.2347 95.4685 29.9184 97.6993 29.9184C99.7143 29.9184 100.781 30.4915 100.781 31.258C100.781 32.461 98.5253 32.146 93.6756 32.461C90.3394 32.6719 87.975 32.8244 86.539 34.5261C86.0175 35.155 85.713 36.0703 85.713 37.1704C85.713 40.394 88.2483 41.9964 93.32 41.9964C96.8185 41.9964 99.2402 41.3676 101.112 39.5022C101.142 40.2402 101.281 40.9198 101.556 41.5239H108.744V41.1989C108.192 40.8119 108.056 40.2116 108.056 39.2417V33.5612ZM122.162 37.4111C120.066 37.4111 118.61 36.1596 118.61 34.1602C118.61 32.1472 120.066 30.8871 122.162 30.8871C124.283 30.8871 125.716 32.1472 125.716 34.1602C125.714 36.1596 124.283 37.4111 122.162 37.4111ZM124.474 26.4096C122.022 26.4096 120.012 26.9901 118.331 28.1907L118.277 26.7768H111.691V46.2916H118.609V40.3171C120.316 41.3912 122.161 41.8885 124.364 41.8885C129.653 41.8885 132.989 38.8486 132.989 34.159C132.989 29.4719 129.653 26.4096 124.474 26.4096ZM156.881 26.8797H147.656L142.581 31.568V26.8797H135.661V41.5462H142.581V38.2247L145.638 35.8384L149.33 41.5239H157.597L150.791 31.9562L156.881 26.8797ZM165.205 32.5417C165.561 30.8648 167.102 29.973 169.553 29.973C171.843 29.973 173.249 30.9119 173.44 32.5417H165.205ZM169.168 26.3079C162.036 26.3079 158.146 29.2388 158.146 34.1602C158.146 39.083 162.036 42.02 169.168 42.02C175.593 42.02 179.391 40.2699 180.409 37.0464H172.893C172.419 37.7732 171.289 38.1974 169.582 38.1974C166.988 38.1974 165.56 37.2523 165.56 35.6846H180.55C180.551 29.7088 176.668 26.3079 169.168 26.3079ZM117.26 10.6852C119.38 10.6852 120.812 11.9404 120.812 13.9546C120.812 15.9453 119.379 17.2054 117.26 17.2054C115.165 17.2054 113.701 15.9453 113.701 13.9546C113.701 11.9404 115.164 10.6852 117.26 10.6852ZM113.701 20.1139C115.41 21.1843 117.26 21.6878 119.462 21.6878C124.752 21.6878 128.089 18.6429 128.089 13.9546C128.089 9.27251 124.752 6.20526 119.572 6.20526C117.12 6.20526 115.108 6.782 113.43 7.98136L113.374 6.56991H106.789V26.1728H113.699V20.1139H113.701ZM70.5053 9.7649C72.791 9.7649 74.1971 10.71 74.3905 12.336H66.151C66.5065 10.6579 68.0486 9.7649 70.5053 9.7649ZM70.121 21.8144C76.539 21.8144 80.3406 20.0581 81.3587 16.8408H73.8365C73.3662 17.575 72.2383 17.9905 70.529 17.9905C67.9413 17.9905 66.5053 17.0454 66.5053 15.4727H81.4997C81.4997 9.50816 77.612 6.10107 70.1198 6.10107C62.9831 6.10107 59.0967 9.03313 59.0967 13.9546C59.0979 18.8823 62.9844 21.8144 70.121 21.8144ZM140.651 10.6306C142.799 10.6306 144.235 11.9119 144.235 13.9559C144.235 16.0011 142.799 17.2823 140.651 17.2823C138.5 17.2823 137.073 16.0011 137.073 13.9559C137.073 11.9119 138.5 10.6306 140.651 10.6306ZM140.676 21.8144C147.731 21.8144 151.563 18.8835 151.563 13.9559C151.563 9.03437 147.731 6.10232 140.676 6.10232C133.623 6.10232 129.768 9.03437 129.768 13.9559C129.768 18.8823 133.623 21.8144 140.676 21.8144Z" fill="#020F19"/>
<path fill-rule="evenodd" clip-rule="evenodd" d="M18.4504 8.83462H32.4702C33.5545 8.83462 34.4403 8.00114 34.4403 6.97045V1.86912C34.4403 0.834719 33.5545 0 32.4702 0H18.4504C17.3649 0 16.4816 0.834719 16.4816 1.86912V6.97045C16.4803 8.00114 17.3649 8.83462 18.4504 8.83462Z" fill="#ABB910"/>
<path fill-rule="evenodd" clip-rule="evenodd" d="M28.6226 19.8263V24.924C28.6226 25.9584 29.5071 26.7981 30.5914 26.7981H45.4847C46.5739 26.7981 47.451 25.9584 47.451 24.924V19.8263C47.451 18.7907 46.5739 17.9609 45.4847 17.9609H30.5914C29.5071 17.9597 28.6226 18.7895 28.6226 19.8263Z" fill="#ABB910"/>
<path fill-rule="evenodd" clip-rule="evenodd" d="M4.42922 40.6084H15.5408C16.63 40.6084 17.5109 39.7736 17.5109 38.7392V33.6429C17.5109 32.6072 16.63 31.77 15.5408 31.77H4.42922C3.34501 31.77 2.46167 32.6072 2.46167 33.6429V38.7392C2.46042 39.7749 3.34501 40.6084 4.42922 40.6084Z" fill="#ABB910"/>
<path fill-rule="evenodd" clip-rule="evenodd" d="M49.351 27.904H29.6343C28.7422 27.904 27.9999 27.4264 27.5644 26.7505H27.1702V39.3717C27.1702 40.6666 28.2719 41.7146 29.633 41.7146H31.5295V35.2974C31.5295 34.2592 32.4153 33.4258 33.4995 33.4258H40.2506C41.3398 33.4258 42.2194 34.2592 42.2194 35.2974V41.7146H49.3498C50.7072 41.7146 51.8139 40.6666 51.8139 39.3717V26.7505H51.4159C50.9892 27.4264 50.2444 27.904 49.351 27.904Z" fill="#ABB910"/>
<path fill-rule="evenodd" clip-rule="evenodd" d="M18.8958 41.715H2.46038C1.56207 41.715 0.805987 41.2325 0.375544 40.5479H0V47.6622C0 48.957 1.10418 50.0001 2.46038 50.0001H18.8945C20.2545 50.0001 21.3587 48.9558 21.3587 47.6622V40.5479H20.9781C20.5514 41.2325 19.7966 41.715 18.8958 41.715Z" fill="#ABB910"/>
<path fill-rule="evenodd" clip-rule="evenodd" d="M35.8901 16.8494V8.79004H35.4995C35.0728 9.466 34.3243 9.93979 33.4272 9.93979H15.0953C14.2033 9.93979 13.4597 9.46476 13.0292 8.79004H12.6375V30.6637H21.8015C23.1602 30.6637 24.2619 31.7068 24.2619 33.0029V36.1905H25.7192V19.1874C25.7192 17.8962 26.8196 16.8494 28.177 16.8494H35.8901Z" fill="#ABB910"/>
</svg>

<svg width="200" height="50" fill="none" xmlns="http://www.w3.org/2000/svg"><path fill-rule="evenodd" clip-rule="evenodd" d="M91.007 17.648v-2.302h4.238c1.13 0 1.543.447 1.543 1.156 0 .808-.412 1.145-1.543 1.145h-4.238v.001zm0-7.543h3.692c1.073 0 1.373.343 1.373 1.05 0 .684-.3 1.047-1.373 1.047h-3.692v-2.097zm12.864 6.992c0-1.546-1.186-2.959-3.09-3.45 1.024-.344 2.233-1.786 2.233-3.09 0-2.675-1.594-3.957-5.785-3.957H84.087v14.718h11.984c5.155-.001 7.8-.71 7.8-4.22zm-32.65 17.357L68.297 26.8h-9.2v14.725h6.917v-5.532l-.886-5.783 4.137 11.315h3.913l4.13-11.315-.882 5.783v5.532h6.921V26.8h-9.203l-2.921 7.654zM181.483 26.8v4.666h5.79v10.06h6.943v-10.06H200V26.8h-18.517zm-85.38 11.425c-1.628 0-2.537-.547-2.537-1.471 0-.916.802-1.174 2.645-1.334 1.849-.153 3.475-.103 4.877-.759.024.132.024.24.024.371 0 1.882-1.897 3.193-5.01 3.193zm11.953-4.664c0-2.596-.36-4.243-2.118-5.555-1.436-1.044-4.186-1.596-8.294-1.596-6.972 0-10.332 1.204-10.635 4.976h7.137c.193-1.151 1.323-1.468 3.553-1.468 2.015 0 3.082.573 3.082 1.34 0 1.203-2.256.888-7.105 1.203-3.337.21-5.701.363-7.137 2.065-.522.629-.826 1.544-.826 2.644 0 3.224 2.535 4.826 7.607 4.826 3.499 0 5.92-.628 7.792-2.494.03.738.169 1.418.444 2.022h7.188v-.325c-.552-.387-.688-.987-.688-1.957v-5.68zm14.106 3.85c-2.096 0-3.552-1.251-3.552-3.25 0-2.014 1.456-3.274 3.552-3.274 2.121 0 3.554 1.26 3.554 3.273-.002 2-1.433 3.251-3.554 3.251zm2.312-11.001c-2.452 0-4.462.58-6.143 1.78l-.054-1.413h-6.586v19.515h6.918v-5.975c1.707 1.074 3.552 1.572 5.755 1.572 5.289 0 8.625-3.04 8.625-7.73 0-4.687-3.336-7.75-8.515-7.75zm32.407.47h-9.225l-5.075 4.688V26.88h-6.92v14.666h6.92v-3.321l3.057-2.387 3.692 5.686h8.267l-6.806-9.568 6.09-5.076zm8.324 5.662c.356-1.677 1.897-2.569 4.348-2.569 2.29 0 3.696.939 3.887 2.569h-8.235zm3.963-6.234c-7.132 0-11.022 2.93-11.022 7.852 0 4.923 3.89 7.86 11.022 7.86 6.425 0 10.223-1.75 11.241-4.974h-7.516c-.474.727-1.604 1.151-3.311 1.151-2.594 0-4.022-.945-4.022-2.512h14.99c.001-5.976-3.882-9.377-11.382-9.377zM117.26 10.685c2.12 0 3.552 1.255 3.552 3.27 0 1.99-1.433 3.25-3.552 3.25-2.095 0-3.559-1.26-3.559-3.25 0-2.015 1.463-3.27 3.559-3.27zm-3.559 9.429c1.709 1.07 3.559 1.574 5.761 1.574 5.29 0 8.627-3.045 8.627-7.733 0-4.682-3.337-7.75-8.517-7.75-2.452 0-4.464.577-6.142 1.776l-.056-1.411h-6.585v19.603h6.91v-6.06h.002zM70.505 9.764c2.286 0 3.692.946 3.886 2.572h-8.24c.356-1.678 1.898-2.571 4.354-2.571zm-.384 12.05c6.418 0 10.22-1.756 11.238-4.973h-7.522c-.47.734-1.599 1.15-3.308 1.15-2.588 0-4.024-.946-4.024-2.518H81.5c0-5.965-3.888-9.372-11.38-9.372-7.137 0-11.023 2.932-11.023 7.854 0 4.927 3.887 7.86 11.024 7.86zm70.53-11.183c2.148 0 3.584 1.28 3.584 3.325s-1.436 3.326-3.584 3.326c-2.151 0-3.578-1.28-3.578-3.326 0-2.044 1.427-3.325 3.578-3.325zm.025 11.183c7.055 0 10.887-2.93 10.887-7.858 0-4.922-3.832-7.854-10.887-7.854-7.053 0-10.908 2.932-10.908 7.854 0 4.926 3.855 7.858 10.908 7.858z" fill="#020F19"/><path fill-rule="evenodd" clip-rule="evenodd" d="M18.45 8.835h14.02c1.084 0 1.97-.834 1.97-1.865v-5.1C34.44.834 33.554 0 32.47 0H18.45c-1.085 0-1.968.835-1.968 1.87v5.1c-.002 1.031.883 1.865 1.968 1.865zm10.173 10.991v5.098c0 1.034.884 1.874 1.968 1.874h14.894c1.089 0 1.966-.84 1.966-1.874v-5.098c0-1.035-.877-1.865-1.966-1.865H30.59c-1.084-.001-1.968.829-1.968 1.865zM4.43 40.608h11.11c1.09 0 1.97-.834 1.97-1.869v-5.096c0-1.036-.88-1.873-1.97-1.873H4.43c-1.085 0-1.968.837-1.968 1.873v5.096c-.002 1.036.883 1.87 1.967 1.87z" fill="#ABB910"/><path fill-rule="evenodd" clip-rule="evenodd" d="M49.351 27.904H29.634c-.892 0-1.634-.478-2.07-1.154h-.394v12.622c0 1.295 1.102 2.343 2.463 2.343h1.896v-6.418c0-1.038.886-1.871 1.97-1.871h6.752c1.089 0 1.968.833 1.968 1.871v6.418h7.13c1.358 0 2.465-1.048 2.465-2.343V26.75h-.398a2.433 2.433 0 01-2.065 1.154zM18.896 41.715H2.46a2.458 2.458 0 01-2.084-1.167H0v7.114C0 48.957 1.104 50 2.46 50h16.434c1.36 0 2.465-1.044 2.465-2.338v-7.114h-.38a2.445 2.445 0 01-2.083 1.167z" fill="#ABB910"/><path fill-rule="evenodd" clip-rule="evenodd" d="M35.89 16.85V8.79h-.39a2.437 2.437 0 01-2.073 1.15H15.095a2.44 2.44 0 01-2.066-1.15h-.392v21.874h9.165c1.358 0 2.46 1.043 2.46 2.339v3.188h1.457V19.186c0-1.29 1.1-2.338 2.458-2.338h7.713z" fill="#ABB910"/></svg>
